!!!OTL: Captain Conrod
!!!ONM: 108.
**kern
*clefG2
*k[]
*C:
*M3/4
*MM120
{4c
=1
4c
4e
4g
=2
4a
4g
4e
=3
4d
4c
4B
=4
2c}
{8e
8e
=5
4e
4d
4c
=6
4B
4d
4a
=7
4a
4g
4e
=8
2g}
{4g
=9
4g
4a
4b
=10
4cc
4ee
8dd
8dd
=11
4cc
4a
4b
=12
2cc}
{8a
8b
=13
4cc
4b
4a
=14
4g
4c
4c
=15
4e
4d
4c
=16
4d}
=||
{4e
4c
=17
4.g
8g
4g
=18
4a
4g
4e
=19
4d
4c
4B
=20
2c}
==
*-
!!!CNT: Folksongs of Maritime Canada
!!!MRD: 1928///-1932///
!!!OCL: Helen Creighton
!!!YOR: Songs and Ballads from Nova Scotia
!!!PPR: J.M. Dent & Sons, Limited
!!!PPP: Toronto, Canada
!!!PDT: 1932///
!!!reprint: Dover Publications, 1992: ISBN 0-486-21703-5
!!!ENC1: Craig Stuart Sapp (music and bibliographic data)                       
!!!ENC2: Marcus Pearce (phrase markings and key designations)                   
!!!ENC3: Darrell Conklin (phrase markings and key designations)   
!!!END: 2002/04/10/
!!!EEV: 2004/06/05
!!!MPN: Mr. Ben Henneberry
!!!PPG: 232
!!!EFL: 109/152
!!!ARE: Canada; Nova Scotia
!!!verses: 13
!!!VTS: 3772600218
